X:777
T:Cailin Mo Run Sa
C:Joe Buchanan's Scottish Tome - Page 532.3
I:532 3
Z:Carl Allison
R:Slow Air
L:1/4
M:3/4
K:G
"G"(D G) A | "G"B3 | "D7"(A2 B) | "C"(A G) E | "G"D3- | D2 B | "C"(c d) e | "G"d3 |
"Bm"(B2 A) | "Em"(G E) G | "D7"A3- | "D"A2 d | "G"(d e) d | "G"B3 | "D"(A2 G) | "C"(A G) E |
"G"D3- | "D7"D2 B | "C"(c d) e | "G"d3 | "Em"(B2 G) | "D7"(A G) E | "G"G3- | G2 :|
